X:80
T:Polka Gan Ainm
R:Polka
S:Lucy Farr, Galway (fiddle).
D:Lucy Farr - 'Hearth and Home'
Q:240
M:2/4
L:1/8
Z:Bernie Stocks
K:G
GA |: Bc/B/ AG | EG GA | Bc/B/ AG | Bd ed | Bc/B/ AG | EG GA |  BA/B/ dB | AG G2 :|
|: gd ed | Bd de/f/ | gd ed | Bd A2 | gd ed | Bd ed | Bd/B/ AG/A/ | BG G2 :|
<end>
<start>
